img/icons/design/pixel.svg

<svg xmlns="http://www.w3.org/2000/svg" viewBox="0 0 44 44"><path d="M30 28V14H16V0H0v44h44V28zm-2-12v12H16V16zM14 2v12H2V2zm0 40H2V30h12zM2 28V16h12v12zm14 2h12v12H16zm26 12H30V30h12z" fill="#231f20" data-name="Layer 2"/></svg>

<svg xmlns="http://www.w3.org/2000/svg" viewBox="0 0 44 44"><defs><style>.cls-1{fill:#231f20;}</style></defs><title>Pixel</title><g id="Layer_2" data-name="Layer 2"><g id="Icons"><g id="Design"><path id="Pixel" class="cls-1" d="M30,28V14H16V0H0V44H44V28ZM28,16V28H16V16ZM14,2V14H2V2Zm0,40H2V30H14ZM2,28V16H14V28Zm14,2H28V42H16ZM42,42H30V30H42Z"/></g></g></g></svg>
